X:1
T:I Came To This Country in 1865
M:2/4
L:1/8
K:F
 A3- c|A-G ED| CC C3/2 D/2| EG DC| D2 z G| A^G AA| d d2d/2-e/2| dc A=G|\
 c2| z G| AA AA| d d2d/2-e/2| dc AG| c2 z2| A3- c| AG ED| C2 DD|E-G|\
D-^C| D2 z2|
